svg/300/sharp/tab_unselected-fill.svg

<svg xmlns="http://www.w3.org/2000/svg" width="48" height="48" viewBox="0 -960 960 960"><path d="M100.001-180.001v-60.77h45.384v15.386h15.386v45.384h-60.77Zm0-147.462v-83.461h45.384v83.461h-45.384Zm0-169.538v-83.462h45.384v83.462h-45.384Zm0-169.538v-113.46h127.615v45.384h-82.231v68.076h-45.384Zm146.462 486.538v-45.384h81.615v45.384h-81.615Zm66.23-554.614v-45.384h82.23v45.384h-82.23ZM413.77-180.001v-45.384h81.616v45.384H413.77ZM480-564.461v-215.538h379.999v215.538H480Zm101.078 384.46v-45.384h81.615v45.384h-81.615Zm167.307 0v-45.384h66.23v-83.846h45.384v129.23H748.385Zm66.23-214.922v-83.462h45.384v83.462h-45.384Z"/></svg>

<svg xmlns="http://www.w3.org/2000/svg" width="48" height="48" viewBox="0 -960 960 960"><path d="M100-180v-60.77h45.39v15.38h15.38V-180H100Zm0-147.46v-83.46h45.39v83.46H100ZM100-497v-83.46h45.39V-497H100Zm0-169.54V-780h127.62v45.39h-82.23v68.07H100ZM246.46-180v-45.39h81.62V-180h-81.62Zm66.23-554.61V-780h82.23v45.39h-82.23ZM413.77-180v-45.39h81.62V-180h-81.62ZM480-564.46V-780h380v215.54H480ZM581.08-180v-45.39h81.61V-180h-81.61Zm167.31 0v-45.39h66.22v-83.84H860V-180H748.39Zm66.22-214.92v-83.46H860v83.46h-45.39Z"/></svg>
